icons/svg/theater.svg

﻿<?xml version="1.0" encoding="utf-8"?>
<!DOCTYPE svg PUBLIC "-//W3C//DTD SVG 1.1//EN" "http://www.w3.org/Graphics/SVG/1.1/DTD/svg11.dtd">
<svg xmlns="http://www.w3.org/2000/svg" xmlns:xlink="http://www.w3.org/1999/xlink" version="1.1" baseProfile="full" width="24" height="24" viewBox="0 0 24.00 24.00" enable-background="new 0 0 24.00 24.00" xml:space="preserve">
	<path fill="#000000" fill-opacity="1" stroke-width="0.2" stroke-linejoin="round" d="M 4,15L 6,15C 7.10457,15 8,15.8954 8,17L 8,19L 9,19L 9,17C 9,15.8954 9.89543,15 11,15L 13,15C 14.1046,15 15,15.8954 15,17L 15,19L 16,19L 16,17C 16,15.8954 16.8954,15 18,15L 20,15C 21.1046,15 22,15.8954 22,17L 22,19L 23,19L 23,22L 1,22L 1,19L 2,19L 2,17C 2,15.8954 2.89543,15 4,15 Z M 11,7L 15,10L 11,13L 11,7 Z M 4,2.00001L 20,2.00001C 21.1046,2.00001 22,2.89544 22,4.00001L 22,13.5351C 21.4116,13.1948 20.7286,13 20,13L 20,4L 4,4L 4,13C 3.27142,13 2.58835,13.1948 2,13.5351L 2,4.00001C 2,2.89544 2.89543,2.00001 4,2.00001 Z "/>
</svg>

<svg xmlns="http://www.w3.org/2000/svg" version="1.1" baseProfile="full" width="24" height="24" viewBox="0 0 24.00 24.00" xml:space="preserve"><path fill="#000" fill-opacity="1" stroke-width=".2" stroke-linejoin="round" d="M4 15h2c1.105 0 2 .895 2 2v2h1v-2c0-1.105.895-2 2-2h2c1.105 0 2 .895 2 2v2h1v-2c0-1.105.895-2 2-2h2c1.105 0 2 .895 2 2v2h1v3H1v-3h1v-2c0-1.105.895-2 2-2zm7-8l4 3-4 3V7zM4 2h16c1.105 0 2 .895 2 2v9.535c-.588-.34-1.27-.535-2-.535V4H4v9c-.73 0-1.412.195-2 .535V4c0-1.105.895-2 2-2z"/></svg>
